src/icons/partly-cloudy.svg

<svg width="32" height="23" viewBox="0 0 32 23" fill="none" xmlns="http://www.w3.org/2000/svg">
<path d="M20.4844 4.85449C21.0107 4.85449 21.4512 4.40332 21.4512 3.87695V1.65332C21.4512 1.11621 21.0107 0.686523 20.4844 0.686523C19.9473 0.686523 19.5068 1.11621 19.5068 1.65332V3.87695C19.5068 4.40332 19.9473 4.85449 20.4844 4.85449ZM14.1035 6.92773C14.4902 7.31445 15.124 7.30371 15.4893 6.93848C15.8438 6.5625 15.8545 5.9502 15.4785 5.57422L13.8994 3.98438C13.5234 3.6084 12.9004 3.6084 12.5352 3.98438C12.1592 4.36035 12.1592 4.97266 12.5352 5.34863L14.1035 6.92773ZM25.4795 6.93848C25.8447 7.31445 26.4785 7.31445 26.8652 6.92773L28.4336 5.35938C28.8096 4.9834 28.8096 4.36035 28.4336 3.98438C28.0576 3.6084 27.4453 3.6084 27.0693 3.98438L25.4795 5.57422C25.1035 5.9502 25.1143 6.5625 25.4795 6.93848ZM23.3418 16.5205C24.8887 15.4678 25.8555 13.8242 25.8555 11.9336C25.8555 8.94727 23.46 6.55176 20.4844 6.55176C18.5186 6.55176 16.8105 7.60449 15.9189 9.14062C16.3916 9.61328 16.7783 10.1289 17.1113 10.7627C20.6025 11.0312 22.9873 13.2656 23.3418 16.5205ZM4.61816 22.7402H16.5312C19.6143 22.7402 21.9883 20.3984 21.9883 17.3584C21.9883 14.2969 19.5498 12.0088 16.2734 11.9873C15.0703 9.69922 12.8789 8.17383 10.0537 8.17383C6.47656 8.17383 3.46875 10.9238 3.13574 14.5117C1.30957 15.0381 0.0849609 16.6064 0.0849609 18.5723C0.0849609 21.0215 1.90039 22.7402 4.61816 22.7402ZM28.5195 12.9004H30.7432C31.2803 12.9004 31.71 12.4707 31.71 11.9336C31.71 11.3965 31.2803 10.9668 30.7432 10.9668H28.5195C27.9932 10.9668 27.542 11.3965 27.542 11.9336C27.542 12.4707 27.9932 12.9004 28.5195 12.9004ZM27.0693 19.8936C27.4453 20.2695 28.0576 20.2588 28.4336 19.8828C28.8096 19.5068 28.7988 18.8945 28.4229 18.5186L26.8438 16.9395C26.4678 16.5742 25.8555 16.5635 25.4795 16.9395C25.1035 17.3154 25.1143 17.9385 25.4795 18.3145L27.0693 19.8936Z" fill="white"/>
</svg>

<svg xmlns="http://www.w3.org/2000/svg" width="32" height="23" fill="none"><path fill="#fff" d="M20.484 4.854a.986.986 0 0 0 .967-.977V1.653a.972.972 0 0 0-1.944 0v2.224c0 .526.44.977.977.977Zm-6.38 2.074a.992.992 0 0 0 1.385.01.986.986 0 0 0-.01-1.364l-1.58-1.59a.966.966 0 0 0-1.364 0 .966.966 0 0 0 0 1.365l1.569 1.579Zm11.376.01c.365.376.998.376 1.385-.01l1.569-1.569a.979.979 0 0 0 0-1.375.966.966 0 0 0-1.365 0l-1.59 1.59a.976.976 0 0 0 0 1.364Zm-2.138 9.582c1.547-1.052 2.514-2.696 2.514-4.586a5.362 5.362 0 0 0-5.372-5.382c-1.965 0-3.674 1.052-4.565 2.589.473.472.86.988 1.192 1.622 3.491.268 5.876 2.503 6.23 5.757ZM4.618 22.74h11.913c3.083 0 5.457-2.342 5.457-5.382 0-3.061-2.438-5.35-5.715-5.37-1.203-2.289-3.394-3.814-6.22-3.814-3.576 0-6.584 2.75-6.917 6.338-1.826.526-3.051 2.094-3.051 4.06 0 2.45 1.815 4.168 4.533 4.168ZM28.52 12.9h2.224c.537 0 .967-.43.967-.966a.963.963 0 0 0-.967-.967H28.52a.979.979 0 0 0-.978.967c0 .537.451.966.977.966Zm-1.45 6.994a.966.966 0 0 0 1.365-.011.966.966 0 0 0-.011-1.364l-1.58-1.58a.976.976 0 0 0-1.363 0 .99.99 0 0 0 0 1.375l1.59 1.58Z"/></svg>
